X:1
T: Mr. Charles Graham
C:
R:Strathspey
Q: 128
K:A
M:4/4
L:1/16
|:cB|AE3 E3D CE3 A,3c|BF3 B3A GB3 B3c|AE3 E3A FA3 D3f|e2c2 Bcde c2A2 A2cB|
AE3 E3D CE3 A,3c|BF3 B3A GB3 B3c|AE3 E3A FA3 D3f|e2c2 Bcde c2A2 A2fg|
a2e2 e2dc ABcd e2c2|df3 ce3 f2B2 B2fg|a2e2 e2dc ABcd e2c2|f2d2 B2cd c2A2 A2fg|
a2e2 e2dc ABcd e2c2|df3 ce3 f2B2 B2cB|AE3 cA3 e2c2 a2e2|f2d2 Bcde c2A2 A2:|
